X: 37552
T: Slow The Plough
R: hornpipe
M: 4/4
K: Bminor
Bcde fgfd|fgfd fgfd|e2ge d2fd|c2c2 c2 dc|
Bcde fgfd|fgfd fgfd|e2ge d2fd|c2c2 B4:|
b2bb b2g2|b2ag fdBd|e2ge d2fd|c2c2 c4|
b2bb b2g2|b2ag fdBd|e2ge d2fd|c2c2 B4:|

